X:2
T:Andro 2
G:Kazimodal
R:Andro
C:Traditionnel, arrangement Ronan Keryell http://kazimodal.trad.org
Q:C2=112
P:B5
M:4/4
S:Tonioù Breizh-Izel 1721 (Pleskob)
K:F
P:B
%\large
%%%%MIDI program 109
%%MIDI gchord fcfcfcfc
%%MIDI chordprog 105
%%MIDI bassprog 32
%%MIDI bassvol 127
|: "F"{FG}F/2C/2F/2A/2 "C"{GA}G>E "Bb"D"C"E "F"FF |\
C(F/2A/2) "Gm"{GA}G>F "Bb"D"C"E "F"F2 :|
"F"{FG}FG/2A/2 "Gm"G>G "Am"{FG}FG/2A/2 "C"G2 |\
"F"{FG}FG/2A/2 "Dm"FF "C"(E/2F/2)"Bb"D/2E/2 "Am"C2 |
"F"{FG}FG/2A/2 "Gm"G>G "Bb"{FG}FG/2A/2 "C"G2 |\
"F"{FG}FA/2G/2 "Gm"(F/2E/2)"Am"D/2E/2 "Bb"{FG}F(E/2"C"G/2) "F"F2 ||

\bigskip

